packages/foundations/assets/icons/functional/images/layout/zoom_out_16.svg

<svg width="16" height="16" viewBox="0 0 16 16" fill="none" xmlns="http://www.w3.org/2000/svg">
<g clip-path="url(#clip0_185_1535)">
<path fill-rule="evenodd" clip-rule="evenodd" d="M7.19998 1.59998C10.3025 1.59998 12.8 4.09357 12.8 7.19998C12.8 8.4686 12.3695 9.61824 11.6873 10.5453L14.1563 13.0175C14.3188 13.1801 14.4 13.3916 14.4 13.5867C14.4 14.0421 14.0264 14.4 13.6203 14.4C13.4091 14.4 13.19 14.3432 13.0193 14.1722L10.5502 11.7001C9.6081 12.367 8.45074 12.8 7.19998 12.8C4.11368 12.8 1.59998 10.2902 1.59998 7.19998C1.59998 4.09357 4.11368 1.59998 7.19998 1.59998ZM7.19489 3.21011C4.98295 3.21011 3.2264 4.98297 3.2264 7.19486C3.2264 9.40685 4.98295 11.1959 7.19489 11.1959C9.40683 11.1959 11.2122 9.40685 11.2122 7.19486C11.2122 4.98297 9.40683 3.21011 7.19489 3.21011ZM9.59998 6.39998V7.99998H4.79998V6.39998H9.59998Z" fill="#1A1C1F"/>
</g>
<defs>
<clipPath id="clip0_185_1535">
<rect width="16" height="16" fill="white"/>
</clipPath>
</defs>
</svg>

<svg xmlns="http://www.w3.org/2000/svg" width="16" height="16" fill="none"><g clip-path="url(#a)"><path fill="#1A1C1F" fill-rule="evenodd" d="M7.2 1.6c3.103 0 5.6 2.494 5.6 5.6 0 1.269-.43 2.418-1.113 3.345l2.47 2.473a.82.82 0 0 1 .243.569c0 .455-.374.813-.78.813a.82.82 0 0 1-.6-.228L10.55 11.7c-.942.667-2.1 1.1-3.35 1.1-3.086 0-5.6-2.51-5.6-5.6 0-3.106 2.514-5.6 5.6-5.6m-.005 1.61a3.957 3.957 0 0 0-3.969 3.985c0 2.212 1.757 4 3.969 4s4.017-1.788 4.017-4S9.407 3.21 7.195 3.21M9.6 6.4V8H4.8V6.4z" clip-rule="evenodd"/></g><defs><clipPath id="a"><path fill="#fff" d="M0 0h16v16H0z"/></clipPath></defs></svg>
